X:1
T:karv
T: "Karvan" simfonik lövhəsi Симфоническая картина "Караван" 
T:Soltan Hacıbəyov
T:Kompyuterdə notlara yığan: Müşfiq Abdullayev
%%score { 1 | 2 }
L:1/8
Q:1/4=75
M:4/4
K:F
V:1 treble nm="Piano" snm="Pno."
V:2 bass 
V:1
 z8 |{/g} a8 | %2
 (7:4:7a/b/a/b/g/b/g/ (7:4:7a/b/a/b/g/b/g/ (7:4:7a/b/a/b/g/b/g/ (7:4:7a/b/a/b/g/b/g/ | %3
 z (3g/b/g/ (6:4:6a/b/a/b/c'/b/ (6:4:6a/c'/a/g/b/g/ (3f/a/f/g |{/f} g2- g/>a/ (3f/a/f/ g4- | %5
 g3 a/=b/ c'3 b/c'/ | d'3 (3d'/_e'/d'/ (6:4:6c'/e'/c'/_b/c'/b/ (6:4:6a/c'/a/g/b/g/ | a8 | %8
 (7:4:7a/b/a/b/g/b/g/ (7:4:7a/b/a/b/g/b/g/ (7:4:7a/b/a/b/g/b/g/ (7:4:7a/b/a/b/g/b/g/ | %9
 z (3g/b/g/ (6:4:6a/b/a/b/c'/b/ (6:4:6a/c'/a/g/b/g/ (3f/a/f/g |{/f} g2- g/>a/ (3f/a/f/ g4- | %11
 g2- g z (7:4:7g/a/g/a/f/a/f/ (7:4:7g/a/g/a/f/a/f/ | %12
 (7:4:7g/a/g/a/f/a/f/ (7:4:7g/a/g/a/f/a/f/ z (3f/a/f/ (6:4:6g/a/g/a/b/a/ | %13
 (6:4:6g/b/g/f/a/f/ (3e/g/e/f- f2 (6:4:6e/g/e/f/g/f/ | %14
 (6:4:6g/b/g/f/a/f/ (6:4:6e/g/e/d/f/d/ _e3 f/4e/4d/4c/4 | d6 z2 |] %16
V:2
 D,,2 B,,D, A,,2 D,2 | D,,2 B,,D, A,,2 D,2 | D,,2 B,,D, A,,2 D,2 | D,,2 B,,D, A,,2 D,2 | %4
 D,,2 B,,D, A,,2 D,2 | D,,2 B,,D, A,,2 D,2 | D,,2 B,,D, A,,2 D,2 | %7
!f! [D,,D,]2 [A,,A,][C,G,] [A,,A,]2 [D,G,]2 | [D,,D,]2 [B,,G,][D,F,] [A,,A,]2 D,2 | %9
 D,,2 B,,D, A,,2 D,2 | [D,,D,]2 B,,D, A,,2 [D,G,]F, | [D,,G,]2 [B,,F,]D, [A,,_E,]2 [D,F,]E, | %12
 [D,,D,]2 B,,D, A,,2 D,2 | [D,,D,]2 B,,D, A,,2 D,2 | [D,,D,]2 B,,D, A,,2 D,2 | %15
 [D,,D,]2 B,,D, A,,2 D,2 |] %16

